!!!OTL: EIN BETTELMANN KAM AUS HUNGERLAND HER
!!!ARE: Europa, Mitteleuropa, Deutschland, Uckermark
!!!SCT: E0139A
!!!YEM: Copyright 1995, estate of Helmut Schaffrath.
**kern
*ICvox
*Ivox
!! Mixed meters:  6/8; 2/4
*M6/8
*k[f#c#]
*D:
{8a
=1
8.dd
16cc#
8b
4a
8a
=2
8.dd
16cc#
8b
4a
8r}
=3
{4dd
8b
4a
8a
=4
8a
8b
8a
8a
8f#
8f#
=5
8f#
8e
8e
4d
8r}
=6
*M2/4
{8.a
16cc#
8.ee
16dd
=7
8.cc#
16b
4a}
=8
{8.f#
16g
8.a
16g
=9
8.f#
16e
4d}
==
!!!AGN: erzaehlendes Volks - Lied, Scherz, Schwank, betrogener Ehemann, Ballade ?
!!!ONB: ESAC (Essen Associative Code) Database: ERK1
!!!AMT: irregular
!!!AIN: vox
!!!EED: Helmut Schaffrath
!!!EEV: 1.0
*-
